!!!!SEGMENT: pl-wumfc--n43032_szymanowski-karol--trzy-fragmenty-z-poematow-jana-kasprowicza-op-5-no-1-swiety-boze-o-niezglebione.krn
!!!cenid: 19xx:70
!!!COM: Szymanowski, Karol
!!!COM-rismID: pe30106403
!!!CDT: 1882-1937
!!!CNT: Polish
!!!OTL: Trzy fragmenty z poematów Jana Kasprowicza op. 5
!!!PDT:
!!!AGN: Secular; Song
!!!YEC: Copyright 2022 Narodowy Instytut Fryderyka Chopina (https://polishscores.org)
!!!YEM: License CC-BY-4.0 (https://creativecommons.org/licenses/by/4.0)
!!!SMS-siglum: PL-Wumfc
!!!SMS-shelfmark: N43032
!!!SMS-variant:
!!!SMS-altvar:
!!!SMS-shelfwork: W
!!!NIFC-rismSourceID: 1001173612
!!!NIFC-rismChildID: 1001173612
!!!NIFC-islandoraID: pl-wumfc:9255
!!!URL-pdf-islandora: https://repozytorium.nifc.pl/islandora/object/pl-wumfc%3A9255/datastream/PDF/view
!!!URL-scan: https://polish.musicsources.pl/pl/lokalizacje/galeria/druki-muzyczne/12465/1 @EN{Scan on Polish Music Sources Website} @PL{Skany w portalu Dziedzictwo Muzyki Polskiej w otwartym dostępie}
!!!IIIF:
!!!ONB-nifc:
!!!OMD: Lento mesto.
!!!AIN: 1 piano 1 vox
!!!key: b
**kern	**kern	**dynam	**kern	**text	**text	**dynam
*part2	*part2	*part2	*part1	*part1	*part1	*part1
*staff3	*staff2	*	*staff1	*staff1	*staff1	*
*ICklav	*ICklav	*	*ICvox	*	*	*
*Ipiano	*Ipiano	*	*Ivox	*	*	*
*I"PIANO.	*I"PIANO.	*	*I"CANTO.	*	*	*
*clefF4	*clefG2	*	*clefG2	*	*	*
*k[f#c#]	*k[f#c#]	*	*k[f#c#]	*	*	*
*b:	*b:	*	*b:	*	*	*
*M3/2	*M3/2	*	*M3/2	*	*	*
=1	=1	=1	=1	=1	=1	=1
*	*clefF4	*	*	*	*	*
*8ba	*	*	*	*	*	*
*	*	*	*^	*	*	*
!	!	!	!LO:TX:a:t=(W powolnym, poważnym ruchu.)	!	!	!	!
!LO:TX:b:t=8vo basse	!	!	!	!	!	!	!
[1.BBBB; [1.BBB	1.BB;	ppp	1.r;	1ryy	.	.	.
.	.	.	.	4ryy	.	.	.
.	.	.	.	4b\	.	Ô	.
*	*	*	*v	*v	*	*	*
=2	=2	=2	=2	=2	=2	=2
!	!	!	!	!	!	!LO:DY:a
2BBBB/] 2BBB]	2BB/	.	2b\	O,	Sain-	ppp
*X8ba	*	*	*	*	*	*
1r	1r	.	4.f#/	nie-	-te	.
.	.	.	8f#/	-zgłę-	puis-	.
.	.	.	4.g/	-bio-	-sance	.
.	.	.	8a/	-ne,	ô	.
=3	=3	=3	=3	=3	=3	=3
1.r	1.r	.	4b\	nie-	For-	.
.	.	.	4a#X/	-ob-	-ce	.
.	.	.	2f#/	-ję-	im-	.
.	.	.	2d/	-te,	-mor-	.
=4	=4	=4	=4	=4	=4	=4
1.r	1.r	.	1.c#	mo-	-tel-	.
=5	=5	=5	=5	=5	=5	=5
*8ba	*	*	*	*	*	*
!LO:TX:b:t=8vo basse loco	!	!	!	!	!	!
(>4BBBB/ 4BBB	(4BB\ 4D 4F# 4B	pp	4B/	-ce!	-le!	.
!	!LO:TX:b:t=ma pesante	!	!	!	!	!
4BBBB/ 4GGG	4C#\ 4E 4B	.	4r	.	.	.
[2BBBB^^/ 2EEE	2C#^^\ 2E 2G 2A#	.	1r	.	.	.
2BBBB/]) 2DDD	2BB\) 2D 2F# 2B	.	.	.	.	.
!!LO:LB:g=original
=6	=6	=6	=6	=6	=6	=6
!LO:TX:b:t=8vo loco	!	!	!	!	!	!
4BBBB/ 4BBB	(4BB\ 4D 4F# 4B	.	1.r	.	.	.
4BBBB/ 4GGG	4C#\ 4E 4B	.	.	.	.	.
(2BBBB^^/ 2EEE	2C#^^\ 2E 2G 2A#X	.	.	.	.	.
2BBBB/) 2DDD	2BB\) 2D 2F# 2B	.	.	.	.	.
=7	=7	=7	=7	=7	=7	=7
*	*^	*	*	*	*	*
(4BBBB/ 4BBB	(4D/ 4F# 4B	1ryy	<	1.r	.	.	.
4AAAA/ 4AAA	4AA/ 4D 4c#	.	.	.	.	.	.
!	!LO:TX:b:t=poco rit.	!	!	!	!	!	!
2GGGG#X/ 2GGG#X	2BB\ 2E#X 2d	.	[	.	.	.	.
2GGGGn/ 2GGGn	4c#/	2C#\ 2E#	.	.	.	.	.
.	[4B/	.	.	.	.	.	.
*	*v	*v	*	*	*	*	*
=8	=8	=8	=8	=8	=8	=8
1.FFFF#) 1.FFF#	2Cn\ 2E 2G 2B]	>	4r	.	.	.
.	.	.	8r	.	.	.
.	.	.	8cc#\	Skrzy-	Je	.
.	1C#X) 1E 1G 1A#X	] p	(2cc#\	-dła-	bats	.
.	.	.	4.b\)	-mi	.	.
.	.	.	8cc#\	trze-	des	.
*X8ba	*	*	*	*	*	*
=9	=9	=9	=9	=9	=9	=9
1.r	1.r	.	2a#X/	-po-	ai-	.
.	.	.	(4.cc#\	-czę,	-les	.
.	.	.	8dd\)	jak	.	.
.	.	.	[2ee\	ptak	tris-	.
=10	=10	=10	=10	=10	=10	=10
1.r	1.r	.	4ee\]	.	-te	.
.	.	.	4g/	ten	oi-	.
.	.	.	2f#/	noc-	-seau	.
.	.	.	2g/	-ny,	de	.
=11||	=11||	=11||	=11||	=11||	=11||	=11||
*M4/4	*M4/4	*	*M4/4	*	*	*
*met(c)	*met(c)	*	*met(c)	*	*	*
(4BBB#X~>/	(2E~\ 2F# 2A#X 2e	pp >	2e/	któ-	nuit,	.
4CC#/	.	.	.	.	.	.
2EE/)	2C#\) 2G 2B 2c#	]]	4.g/	-re-	qui	.
.	.	.	8f#/	-mu	con-	.
!!LO:LB:g=original
=12	=12	=12	=12	=12	=12	=12
(4BBB#X~>/	(2E~\ 2F# 2A#X 2e	>	4e/	o-	-tem-	.
4CC#/	.	.	4e/	-kiem	-ple	.
2EE/)	2C#\) 2G 2B 2c#	]	4.r	.	.	.
.	.	.	8e/	ka-	de	.
=13	=13	=13	=13	=13	=13	=13
(4AAA#X~>/	(2D~\ [2G 2d	>	2d/	-za-	son	.
4BBB/	.	.	.	.	.	.
!	!LO:TX:b:t=dim. e rit.	!	!	!	!	!
2DD/)	2BB\) 2G] 2B	]	4.g/	-no	oeil	.
.	.	.	8d/	skrwa-	san-	.
=14	=14	=14	=14	=14	=14	=14
(4AAA#X~>/	(2D~\ [2G 2d	.	[2d/	-wio-	-glant	.
4BBB/	.	.	.	.	.	.
2DD/)	2BB\) 2]G 2B	.	4d/]	-nem	.	.
.	.	.	4r	.	.	.
=15	=15	=15	=15	=15	=15	=15
(4EEE'>/ 4EE	(4Cn'\ 4G 4B 4cn	>	2g/	pa-	le	.
4r	4r	.	.	.	.	.
!	!LO:TX:b:t=rallent.	!	!	!	!	!
4EEE#X'>/ 4EE#X	4C#X'\ 4G 4B 4c#X	]	4.g/	-trzeć	clair	.
4r	4r	.	.	.	.	.
.	.	.	8g/	w blask	so-	.
=16	=16	=16	=16	=16	=16	=16
!	!LO:TX:b:t=ten.	!	!	!	!	!
1FFF#) 1FF#	1C#) 1F# 1A#X	ppp	(2g/	słoń-	-leil	.
.	.	.	4f#/)	-ca	.	.
.	.	.	4r	.	.	.
!!LO:LB:g=original
=17||	=17||	=17||	=17||	=17||	=17||	=17||
*M3/2	*M3/2	*	*M3/2	*	*	*
!	!LO:TX:b:t=Tempo I.	!	!LO:TX:a:t=Tempo I.	!	!	!
(4GGG#X/ 4GG#X	(4D\ 4Fn 4B	pp	4b\	Świę-	Ô	.
4GGGn/ 4GGn	4C#\ 4E 4B	<	4b\	-ty	Sei-	.
2FFF#/ 2FF#	2BB#X\ 2D#X 2A#X	.	(<2a#X/	Bo-	-gneur	.
2EEE#X/) 2EE#X	2BBn\) 2Dn 2B	.	2b\)	-że,	.	.
=18	=18	=18	=18	=18	=18	=18
*8ba	*	*	*	*	*	*
(<4EEEn/ 4EEn	(4Cn\ 4G 4B	.	4b\	Świę-	Saint	.
4EEE-X/ 4EE-X	4C#X\ 4G 4B	.	4b\	-ty	des	.
2DDD/ 2DD	2D\ 2G 2B-X	.	(<2a#X/	moc-	Saints	.
[2CCC#~>/ [2CC#	2D#X~\ 2G [2Bn	.	2b\)	-ny,	.	.
=19	=19	=19	=19	=19	=19	=19
*	*^	*	*	*	*	*
!	!	!	!	!	!	!	!LO:HP:a
1CCC#] 1CC#]	4Bn/]	2E\ [2G#X	.	4b\	świę-	Ô	<
.	4c#/	.	.	4cc#\	-ty	Puis-	.
.	2d^/	2E#X\ 2G#] 2B	[ mf >	2dd\	a	-sance	.
2DDD/ 2DD	4c#/	2E#\ 2G#	.	4cc#\	nie-	é-	.
.	4B/	.	.	4b\	-śmier-	-ter-	[
=20	=20	=20	=20	=20	=20	=20	=20
1.EEE#X) 1.EE#X	2A#X/	1D 1G#	]	2a#X/	-tel-	-nel-	.
.	1B)	.	p	2.b\	-ny.	-le.	.
.	.	2ryy	.	.	.	.	.
.	.	.	.	4r	.	.	.
*X8ba	*	*	*	*	*	*	*
*	*v	*v	*	*	*	*	*
!!LO:PB:g=original
=21||	=21||	=21||	=21||	=21||	=21||	=21||
*M3/4	*M3/4	*	*M3/4	*	*	*
*	*^	*	*	*	*	*
!	!	!	!	!LO:TX:a:t=Sub. più mosso, agitato (Niespokojnie)	!	!	!
[2FFF#/ [2FF#	(12An/L	4D\ 4F#	mf <	4r	.	.	.
!	!LO:TX:b:t=marcato	!	!	!	!	!	!
.	12B/	.	.	.	.	.	.
.	12c#/J	.	.	.	.	.	.
.	[4D\ [4F# [4d	2ryy	.	4r	.	.	.
8.FFF#/L] 8.FF#]	8.D\L]) 8.F#] 8.d]	.	[	8.r	.	.	.
(16EEE#X/Jk 16EE#X	16D\Jk 16G#X 16c#	.	.	16cc#\	A	Mes	.
=22	=22	=22	=22	=22	=22	=22	=22
2.DD^^/) 2.D	(4A#X^^/	2.E#X\ 2.G#X	.	4a#X/	mo-	ai-	.
.	2B/)	.	.	2b\	-je	-les	.
=23	=23	=23	=23	=23	=23	=23	=23
!	!	!	!LO:HP:t=crescendo	!	!	!	!
[2FFF#/ [2FF#	(12An/L	[4D\ [4F#	<	[2dd\	skrzy-	sont	.
.	12B/	.	.	.	.	.	.
.	12c#/J	.	.	.	.	.	.
.	4D\_ 4F#_ [4d	2ryy	.	.	.	.	.
8.FFF#/L] 8.FF#]	8.D\L]) 8.F#] 8.d]	.	.	8.dd\]	.	.	.
(16EEE#X/Jk 16EE#X	16D\Jk 16G#X 16c#	.	.	16cc#\	-dła	.	.
=24	=24	=24	=24	=24	=24	=24	=24
2.DD/) 2.D	(4A#X^/	2.E#X\ 2.G#X	<	4a#X/	pla-	rou-	.
.	[4B/)	.	.	4b\	-mi	-ges	.
.	8.B/L]	.	.	4r	.	.	.
.	(16B/Jk	.	[	.	.	.	.
*	*v	*v	*	*	*	*	*
=25	=25	=25	=25	=25	=25	=25
*	*	*	*^	*	*	*
4r	4G#X^\)	.	4rff	8r	.	.	.
!	!	!	!	!LO:N:cue	!	!	!
.	.	.	.	8ff#\	.	de	.
([4FFF#/ [4FF#	([4D^\ [4A	ff	2ff#^>\	2ryy	krew!	sang!	.
8.FFF#/L] 8.FF#]	8.D\L] 8.A]	.	.	.	.	.	.
16EEE#X/Jk) 16EE#X	16D^\Jk) 16G# 16c#	.	.	.	.	.	.
*	*	*	*v	*v	*	*	*
!!LO:LB:g=original
=26	=26	=26	=26	=26	=26	=26
*	*^	*	*	*	*	*
!	!LO:TX:b:t=sempre	!	!	!	!	!	!
(>[2GGG#X/ [2GG#X	((4A/	[<4D\ [>4E#X	<	(2ff#\	Któ-	Qui	.
.	4..B/)	4..D\] 4..E#]	.	.	.	.	.
8.GGG#/L] 8.GG#]	.	.	.	4ee\)	-ra	de	.
16GGGn/Jk) 16GGn	16ryy	16En\ 16A 16d	.	.	.	.	.
=27	=27	=27	=27	=27	=27	=27	=27
*	*	*	*^	*	*	*	*
!	!LO:TX:b:t=accelerando	!	!	!	!	!	!	!
(2AAA^>/ 2AA	4B/	2E-X\ 2Gn	.	f	4dd#X\	cie-	mon	.
.	4cn/)	.	[	.	4..dd#\	-knie	coeur	.
*	*clefG2	*	*	*	*	*	*	*
!	!	!	!	!LO:HP:a	!	!	!	!
4GGG#X/) 4GG#X	8.r	4ryy	.	>	.	.	.	.
.	(>16B/ 16b	.	.	.	16b\	bez	meur-	.
=28	=28	=28	=28	=28	=28	=28	=28	=28
(2GGGn/ 2GGn	4B/ 4b	2e\	>	.	2b\	koń-	-tri	.
!	!	!	!LO:DY:b	!	!	!	!	!
.	2cn/) 2ccn	.	] mp	.	.	.	.	.
4GGG-X/) 4GG-X	.	4ryy	.	]	4a#X/	-ca	ruis-	.
*	*	*	*v	*v	*	*	*	*
=29	=29	=29	=29	=29	=29	=29	=29
2EEE#X/ 2EE#X	(4B#X/ 4b#X	2g#X\	p <	4b#X\	z mo-	-sel-	.
!	!LO:TX:b:t=rallent.	!	!	!	!	!	!
.	4.c#X/ 4.cc#X	.	.	4.cc#\	-je-	-le	.
[4EE#X/ [4E#X	.	4ryy	.	.	.	.	.
.	8dn/ 8b#	.	[	8b#\	-go	sans	.
=30	=30	=30	=30	=30	=30	=30	=30
2.EE#/] 2.E#]	2d#X/ [2g#X 2b#X	2ryy	>	2b#X\	ser-	trê-	.
.	4g#/]) 4bn	8.dn\L	]	4bn\	-ca,	-ve	.
.	.	16c#\Jk	.	.	.	.	.
*	*v	*v	*	*	*	*	*
!!LO:LB:g=original
=31	=31	=31	=31	=31	=31	=31
!	!	!	!LO:TX:a:t=a tempo	!	!	!
!	!LO:TX:b:t=a tempo	!	!LO:TX:a:t=nieco spokojniej	!	!	!LO:HP:b
([2FF#~>/ [2F#	(>[4c#~>/ 4f# 4b	>	4b\	a	Un	>
.	4.c#/] 4.e 4.a	.	4.a/	o-	voi-	.
8FF#/L] 8F#]	.	.	.	.	.	.
8GG/J) 8G	8B-X/) 8e-X 8g	]	8g/	-ko	-le	]]
=32	=32	=32	=32	=32	=32	=32
!	!	!	!	!	!	!LO:HP:b
([2FF#~>/ [2F#	(>4c#X~>/ 4e#X 4b	>	4b\	mo-	cou-	>
.	4.cn/ 4.en 4.a	.	4.a/	-je	-vre	.
8FF#/L] 8F#]	.	.	.	.	.	.
8GG/J) 8G	8B-X/) 8e-X 8g	]	8g/	za-	mes	]]
=33	=33	=33	=33	=33	=33	=33
*	*^	*	*	*	*	*
!	!LO:TX:b:t=poco rit.	!	!	!	!	!	!
([2BBB~>/ [2BB	(4gn~/	2G#X\ 2d	.	(4g/	-cho-	yeux	.
.	4.f#/	.	.	4f#/)	-dzi	.	.
8BBB/L] 8BB]	.	4ryy	.	4r	.	.	.
8CC#/J) 8C#	8F#/) 8A#X 8e	.	.	.	.	.	.
=34	=34	=34	=34	=34	=34	=34	=34
*	*	*	*	*^	*	*	*
(2DD~>/ 2D	(4e~/	2Fn\ 2B-X	.	2fn/	2ryy	mgłą,	som	.
!	!LO:TX:b:t=a tempo	!	!LO:HP:t=decresc&colon;	!	!	!	!	!
.	4.d/	.	>	.	.	.	.	.
!	!	!	!	!	!LO:N:cue	!	!	!
4FFn/) 4Fn	.	4ryy	.	4r	4f\	.	bres	.
.	8A/) 8cn	.	.	.	.	.	.	.
*	*	*	*	*v	*v	*	*	*
=35	=35	=35	=35	=35	=35	=35	=35
(2DD~>/ 2D	(4e~/	2Fn\ 2B-X	.	4fn/	któ-	Mon	.
.	4.d/	.	.	4.f/	-ra	coeur	.
4FFn/) 4Fn	.	4ryy	.	.	.	.	.
.	8A/) 8cn	.	.	8f/	jest	se	.
*	*clefF4	*	*	*	*	*	*
!!LO:LB:g=original
=36	=36	=36	=36	=36	=36	=36	=36
(2GGG/ 2GG	(4cn~/	2D\ 2G	p <	2g/	sko-	sent	.
.	4.B-X/	.	.	.	.	.	.
4AAA/) 4AA	.	4Cn\ 4E	.	4a/	-nem	mou-	.
.	8A/)	.	.	.	.	.	.
=37	=37	=37	=37	=37	=37	=37	=37
(2GGG/ 2GG	(4cn~/	2D\ 2G	.	4d/	i	-rir	.
.	4.B-X/	.	.	4d/	me-	et	.
4AAA/) 4AA	.	4Cn\ 4E	.	4e/	-go	mon	.
.	8A/)	.	.	.	.	.	.
=38	=38	=38	=38	=38	=38	=38	=38
(2AAA#X/ 2AA#X	(4An~/	2C#X\ 2E	[	2e/	ser-	a-	.
.	4.G/	.	.	.	.	.	.
4BBB/) 4BB	.	4D\	mf	4f#/	-ca	-me	.
.	[8F#X/	.	.	.	.	.	.
=39	=39	=39	=39	=39	=39	=39	=39
(2CCn/ 2GG	4F#/]	2Cn\	>	4f#/	i	se	.
.	[4E/	.	.	4e/	du-	meurt	.
!	!LO:TX:b:t=ral- lent.	!	!	!	!	!	!
4FFF#/ 4FF#	8E/L]	4AA#X\ 4C#X	.	4f#/	-szy	aus-	.
.	8F#/J	.	.	.	.	.	.
=40	=40	=40	=40	=40	=40	=40	=40
[2GGG/ [2GG	4F#/	[2BB\	]	2.b\	mej.	-si.	.
.	4.E/	.	p	.	.	.	.
8GGG/L] 8GG]	.	8BB\L]	.	.	.	.	.
8FFF#/J) 8FF#	8F#/)	8AA#X\J	.	.	.	.	.
*	*v	*v	*	*	*	*	*
!!LO:PB:g=original
=41||	=41||	=41||	=41||	=41||	=41||	=41||
*M3/2	*M3/2	*	*M3/2	*	*	*
*^	*	*	*	*	*	*
!	!	!	!	!LO:TX:a:t=Tempo I. (jak z początku)	!	!	!
(2GG/	4GGG\	(4E-X\ 4G 4B	.	4b\	Świę-	Ô	.
.	4BBB\	4D\ 4G 4B	.	4b\	-ty	Sei-	.
*8ba	*	*	*	*	*	*	*
2DDD/ 2DD	1ryy	2Cn\ 2F# 2A#X	.	(<2a#X/	Bo-	-gneur	.
2EEE-X/) 2EE-X	.	2BB\) 2G 2B	.	2b\)	-że,	.	.
*v	*v	*	*	*	*	*	*
=42	=42	=42	=42	=42	=42	=42
(>4EEEn/ 4BBB 4EEn	(4BB\ 4G 4B	.	4b\	Świę-	Saint	.
4DDD/ 4DD	4BB\ 4F# 4B	.	4b\	-ty	des	.
2CCC#/ 2CC#	2AA#X\ 2E 2F# 2A#X	.	(<2a#X/	moc-	Saints	.
2BBBB/) 2BBB	2BB\) 2D 2F# 2B	.	2b\)	-ny,	.	.
=43	=43	=43	=43	=43	=43	=43
*	*^	*	*	*	*	*
(4.GGG/ 4.GG	([4E\ 4B	2ryy	<	4b\	Świę-	ô	.
.	4E\] 4A#X 4c#	.	.	4cc#\	-ty	Puis-	.
8FFF#/ 8FF#	.	.	.	.	.	.	.
((2BBB\ 2BB	2d/	1E 1G	[ >	2dd\	a	-sance	.
4AAA#X\))) 4AA#X	4c#/	.	.	4cc#\	nie-	im-	.
*X8ba	*	*	*	*	*	*	*
4r	4B/)	.	]	4b\	-śmier-	-mor-	.
=44	=44	=44	=44	=44	=44	=44	=44
(4.AAAn/ 4.AAn	(4c#/	2E\ 2G	<	(4cc#\	-tel-	-tel-	.
.	4d/	.	.	4dd\)	.	.	.
8GGG#X/ 8GG#X	.	.	.	.	.	.	.
1CC#) 1C#	2e/	[<2G\ [>2A#X	[ >	2.cc#\	-ny,	-le	.
.	4d/	2G\] 2A#]	.	.	.	.	.
.	4c#/)	.	]	4r	.	.	.
*	*clefG2	*	*	*	*	*	*
=45	=45	=45	=45	=45	=45	=45	=45
*	*	*	*	*^	*	*	*
!	!	!LO:TX:b:t=ac-ce-le-ran-do:ext=cd	!LO:HP:t=cres-cen-do:ext=cd	!	!	!	!	!LO:HP:a
!	!	!	!	!	!LO:N:cue	!	!	!
(4.BBB/ 4.BB	(4e/	2G\ 2B	<	2cc#/	4cc#\	zmi-	aie	<
!	!	!	!	!	!LO:N:cue	!	!	!
.	4f#/	.	.	.	4cc#\	.	pi-	.
8AAA#X/ 8AA#X	.	.	.	.	.	.	.	.
1EE) 1E	2g/	[2G\ 2d	.	2dd\	2ryy	-łuj	-tié	[
!	!	!	!	!	!	!	!	!LO:HP:a
.	4e/	2G\] 2c#	.	(<4cc#\	2ryy	się	de	>
.	4d/)	.	.	4b\)	.	nad	.	.
*	*	*	*	*v	*v	*	*	*
=46	=46	=46	=46	=46	=46	=46	=46
(4.CC#/ 4.C#	(4A#X/ 4a#X	2c#\ 2e	.	[2a#X/	na-	nous	.
.	4B/ 4b	.	[	.	.	.	.
8BBB/ 8BB	.	.	.	.	.	.	.
1GG) 1G	2c#/ 2cc#	2e\	<	2a#/]	-mi!	.	]
.	4B/ 4b	2e\	.	2r	.	.	.
.	4A#/) 4a#	.	[	.	.	.	.
*	*v	*v	*	*	*	*	*
!!LO:LB:g=original
=47||	=47||	=47||	=47||	=47||	=47||	=47||
*M3/4	*M3/4	*	*M3/4	*	*	*
*	*^	*	*	*	*	*
!	!	!	!	!LO:TX:b:t=accelerando	!	!	!
!	!	!	!	!LO:TX:a:t=(8=4 ma accel. ed agitato)	!	!	!
(<8.FF#/L 8.F#	(>8c#/L 8g 8b 8cc#	4ryy	mf <	2.r	.	.	.
.	8d/J 8dd	.	.	.	.	.	.
16EE/Jk 16E	.	.	.	.	.	.	.
2C#\) 2c#	4e/ 4ee	2b\	.	.	.	.	.
.	8d/L 8dd	.	.	.	.	.	.
.	8c#/J) 8cc#	.	[	.	.	.	.
*	*v	*v	*	*	*	*	*
=48	=48	=48	=48	=48	=48	=48
*	*	*	*^	*	*	*
!	!	!	!	!LO:N:cue	!	!	!
8.BB/L 8.B	(8e\L 8g 8b 8ee	f	8r	8cc#\	.	Que	.
!	!LO:TX:b:t=poco accel.	!	!	!	!	!	!
.	8f#\J 8ff#	.	8cc#/	8cc#\	I	les	.
16AAA#X/Jk 16AA#X	.	.	.	.	.	.	.
8.E\L 8.e	4g\ 4cc# 4gg	.	4a#X/	2ryy	nie-	dou-	.
16CC#\Jk 16C#	.	.	.	.	.	.	.
8.G\L 8.g	8f#\L 8b 8ff#	.	4b\	.	-chaj	-ces	.
.	8e\J) 8ee	.	.	.	.	.	.
16GG\Jk 16G	.	.	.	.	.	.	.
*	*	*	*v	*v	*	*	*
=49	=49	=49	=49	=49	=49	=49
*	*^	*	*	*	*	*
!	!	!	!	!	!	!	!LO:HP:a
(8.GG^>/L 8.G	4ee/	(>8b\L 8bb	<	4ee\	łzy,	lar-	<
.	.	8cc#\J 8ccc#	.	.	.	.	.
16FF#/Jk) 16F#	.	.	.	.	.	.	.
4A#X^^\ 4e 4g	4gg/	4dd\ 4ddd	[ >	4dd\	któ-	-mes	.
!	!	!	!	!	!	!	!LO:HP:a
8.B\L 8.c# 8.e 8.g	4ee/	8cc#\L 8ccc#	.	(8cc#\L	-re	qui	[ >
.	.	8b\J) 8bb	]	8b\J)	.	.	]
16GG\Jk 16G	.	.	.	.	.	.	.
=50	=50	=50	=50	=50	=50	=50	=50
!	!	!	!	!	!	!	!LO:HP:a
(8.GG^>/L 8.G	4ee/	(>8b\L 8bb	<	4ee\	o	dans	<
.	.	8cc#\J 8ccc#	.	.	.	.	.
16FF#/Jk) 16F#	.	.	.	.	.	.	.
!	!	!	!	!	!	!	!LO:HP:a
4A#X^\ 4e 4g	4gg/	4dd^>\ 4ddd	[ >	4dd\	jas-	les	[ >
8.B\L 8.c# 8.e 8.g	4ee/	8cc#\L 8ccc#	.	(8cc#\L	-nym	feux	.
.	.	8b\J) 8bb	]	8b\J)	.	.	]
16GG\Jk 16G	.	.	.	.	.	.	.
*	*v	*v	*	*	*	*	*
!!LO:LB:g=original
=51	=51	=51	=51	=51	=51	=51
((8.GG~>/L 8.G	(8cc#\L 8aa#X 8ccc#	<	8r	.	.	.
.	8dd\J 8bb 8ddd	.	8ff#\	po-	de	.
16FF#/Jk) 16F#	.	.	.	.	.	.
*clefG2	*	*	*	*	*	*
4A#X^^/ 4e 4g 4cc#	4ee^^\ 4gg 4eee	.	4ee\	-ran-	Vau-	.
8.B/L 8.e 8.g 8.b	8dd\L 8gg 8ddd	.	4dd\	-ku	-be	.
.	8cc#\J) 8ccc#	.	.	.	.	.
*clefF4	*	*	*	*	*	*
16GG/Jk) 16G	.	.	.	.	.	.
=52	=52	=52	=52	=52	=52	=52
((8.GG~>/L 8.G	(8cc#\L 8aa#X 8ccc#	.	4r	.	.	.
.	8dd\J 8bb 8ddd	.	.	.	.	.
16FF#/Jk) 16F#	.	.	.	.	.	.
*clefG2	*	*	*	*	*	*
4A#X~>/ 4e 4g 4cc#	4ee\ 4gg 4eee	.	4ee\	wi-	trem-	.
8.B/L 8.e 8.g 8.b	8dd\L 8gg 8ddd	.	4dd\	-szą	-blent	.
.	8cc#\J) 8ccc#	[	.	.	.	.
*clefF4	*	*	*	*	*	*
16AAn/Jk) 16An	.	.	.	.	.	.
=53	=53	=53	=53	=53	=53	=53
(<(>8.AAn~/L 8.An	(8cc#\L 8aa#X 8ccc#	<	8r	.	.	.
.	8dd\J 8bb 8ddd	.	8dd\	na	sur	.
16GG/Jk) 16G	.	.	.	.	.	.
4G\ 4B 4c# 4e	4ee\ 4bb 4eee	.	4ee\	kło-	les	.
4F#\ 4B 4d 4a	8.ff#\L 8.bb 8.fff#	.	(8ff#\L	-sach	ti-	.
.	.	.	8b\J)	.	-ges	.
.	16aa#\Jk 16aaa	f	.	.	.	.
=54	=54	=54	=54	=54	=54	=54
*^	*^	*	*	*	*	*
!	!	!	!	!	!LO:TX:a:t=rallent&colon;	!	!	!
2B/ 2d	4E\) 4g	4gg\) 4ddd 4ggg	4ryy	>	(<8b\	wy-	des	.
.	.	.	.	.	8b\)	-po-	.	.
.	4r	((4.dd^^/	4ryy	]	4.dd\	-czę-	blonds	.
.	.	.	(>16qqf#\LL	f	.	.	.	.
.	.	.	16qqg\	.	.	.	.	.
.	.	.	16qqa\JJ	.	.	.	.	.
(4A#X\ 4e	4ryy	.	[4g\)	.	.	.	.	.
.	.	8cc#/)	.	.	8cc#\	-tych	é-	.
!!LO:PB:g=original
=55	=55	=55	=55	=55	=55	=55	=55	=55
.	(16qqA#X\LL	.	.	.	.	.	.	.
.	16qqB\	.	.	.	.	.	.	.
.	16qqc#\JJ	.	.	.	.	.	.	.
4e/)	8.B\L)	4b/	8.g\L]	.	2.b\	zbóż,	-pis	.
.	16A#\Jk	.	16f#\Jk	>	.	.	.	.
4B/	8.G\L	4g/	8.e\L	.	.	.	.	.
.	16F#\Jk	.	16d\Jk	.	.	.	.	.
4B/	8F#\L	4g/)	8.d\L	.	.	.	.	.
.	8E\J	.	.	.	.	.	.	.
.	.	.	16c#\Jk	]	.	.	.	.
=56	=56	=56	=56	=56	=56	=56	=56	=56
!	!	!	!LO:TX:a:t=ten.	!	!	!	!	!
2BB/	4r	4r	(>2B\	pp <	2r	.	.	.
.	4GGG\ 4GG	2E^^/ 2c# 2g	.	.	.	.	.	.
!LO:TUP:b	!	!	!	!	!LO:TX:a:t=spokojnie	!	!	!
12BB/L	4ryy	.	12B\L	.	4b\	lub	Et	.
12BB/	.	.	12B\	.	.	.	.	.
12BB/J	.	.	12B\J)	.	.	.	.	.
=57	=57	=57	=57	=57	=57	=57	=57	=57
2BB/	4r	4r	2B\	[	2cc#\	szkli-	la	.
.	4FFF#\ 4FF#	2F#^^/ 2c# 2f#	.	>	.	.	.	.
4AA#X/	4r	.	4A#X\	]	4f#/	-wą	ro-	.
=58	=58	=58	=58	=58	=58	=58	=58	=58
*	*^	*	*	*	*	*	*	*
2.D/	2.GGG\ 2.GG	4ryy	(2d/	8.B\L	pp	2b\	pia-	-sée	.
.	.	.	.	16An\Jk	.	.	.	.	.
.	.	8G/L	.	2ryy	<	.	.	.	.
.	.	8F#/J	.	.	.	.	.	.	.
.	.	8E/L	4B/)	.	.	4cc#\	-ną	si	.
.	.	8E-X/J	.	.	[	.	.	.	.
=59	=59	=59	=59	=59	=59	=59	=59	=59	=59
*	*	*	*	*	*	*^	*	*	*
!	!	!	!	!LO:N:vis=8B\L	!	!	!	!	!	!
4D/	4GGG\ 4GG	4ryy	4d/	8.B\L	.	8dd/	4dd\	po-	pu-	.
.	.	.	.	.	.	8dd/	.	-kry-	.	.
.	.	.	.	16A\Jk	.	.	.	.	.	.
8G/L	4EEE\ 4EE	4E\	4e/	2ryy	>	4ee\	2ryy	-wa-	-re	.
8F#/J	.	.	.	.	.	.	.	.	.	.
8E/L	[4AAA\ [4AA	4C#\	4c#/	.	.	4cc#\	.	-ją	qui	.
8A/J	.	.	.	.	]]	.	.	.	.	.
*	*v	*v	*	*	*	*v	*v	*	*	*
!!LO:PB:g=original
=60	=60	=60	=60	=60	=60	=60	=60	=60
*	*	*	*	*^	*	*	*	*
!	!	!	!	!LO:HP:a	!	!	!	!	!
4F#/ 4A	2AAA\] 2AA]	4f#/	8.c#\L	<	.	2a/	kę-	bril-	.
.	.	.	16B\Jk	.	.	.	.	.	.
!	!	!	!LO:TX:t=P:problem=mixed beam	!	!	!	!	!	!
4ryy	.	2c#/	8A\L	.	.	.	.	.	.
!	!	!	!	!	!LO:HP:a	!	!	!	!
.	.	.	8G</J	.	<	.	.	.	.
8F#/L	4DD\ 4D	.	4ryy	.	.	4cc#\	-py	-le	.
8A/J	.	.	.	[[	[	.	.	.	.
=61	=61	=61	=61	=61	=61	=61	=61	=61	=61
*	*	*	*	*^	*	*	*	*	*
!	!	!	!	!LO:HP:a:t=molto cresc&colon;	!LO:HP:a	!LO:HP:b:t=cresc&colon;	!	!	!	!
4G/	2BBB-X\ 2BB-X	4g/	8.d\L	<	<	<	4dd\	w sen	dans	.
.	.	.	16cn\Jk	.	.	.	.	.	.	.
!	!	!	!LO:TX:t=P:problem=mixed beam	!	!	!	!	!	!	!
4ryy	.	4.d/	8B-X\L	.	.	.	(<8g/	o-	les	.
.	.	.	8A</Jk	.	.	.	8b-X\)	-tu-	.	.
.	.	.	.	.	.	.	.	.	.	.
4G/	4EE-X\ 4E-X	.	4ryy	.	.	.	8dd\	-lo-	prés	.
.	.	8c#X/	.	.	[[	.	8cc#\	-nych	fleu-	.
*	*	*	*	*v	*v	*	*	*	*	*
*	*	*	*	*v	*v	*	*	*	*
=62	=62	=62	=62	=62	=62	=62	=62	=62
!	!	!	!	!LO:HP:a	!	!	!	!
4ryy	2DD\ 2D	2A/ 2f# 2a	8.d\L	<	2dd\	traw,	-ris	.
.	.	.	16c#\Jk	.	.	.	.	.
8B/L	.	.	2ryy	.	.	.	.	.
8A/J	.	.	.	.	.	.	.	.
8G/L	4ryy	4ryy	.	.	4r	.	.	.
8F#/J	.	.	.	[[	.	.	.	.
*v	*v	*	*	*	*	*	*	*
=63	=63	=63	=63	=63	=63	=63	=63
(>8qBBB-X/ 8qBB-X	.	.	.	.	.	.	.
8.d\L)	(8.dd/L	4fn\ 4b-X 4ffn	f	4ffn\	zmie-	chan-	.
!	!LO:TX:b:t=con passione	!	!	!	!	!	!
16cn\Jk	16ccn/Jk	.	.	.	.	.	.
(>8qDD/ 8qD	.	.	.	.	.	.	.
8B-X\L)	8b-/L	2d^^\ 2f#X 2dd	.	4.dd\	-nią	-gent	.
8A\J	8a/J	.	.	.	.	.	.
8G\L	8g/L	.	.	.	.	.	.
8F#\J	8f#/J)	.	.	8dd\	się	en	.
=64	=64	=64	=64	=64	=64	=64	=64
(>8qBBB-X/ 8qBB-X	.	.	.	.	.	.	.
!	!	!	!	!	!	!	!LO:HP:a:t=cresc. accelerando
8.d\L)	(8.dd/L	4fn\ 4b-X 4ffn	.	8ffn\	w głoś-	tri-	<
.	.	.	.	8ff\	-ne	-stes	.
16cn\Jk	16ccn/Jk	.	.	.	.	.	.
(8qDD/ 8qD	.	.	.	.	.	.	.
8B-X\L)	8b-/L	2d^^\ 2f#X 2dd	.	4dd\	skar-	plai-	.
8A\J	8a/J	.	.	.	.	.	.
8G\L	8g/L	.	.	8.dd\	-gi	-ntes	.
8F#\J	8f#/J)	.	.	.	.	.	.
.	.	.	.	16dd\	I	qui	.
!!LO:LB:g=original
=65	=65	=65	=65	=65	=65	=65	=65
(>8qBBBn/ 8qBBn	.	.	.	.	.	.	.
8.d\L)	(8.dd/L	4f#\ 4bn 4ff#	<	(<8.ff#X\	bez	mon-	.
16c#\Jk	16cc#X/Jk	.	.	16ff#\)	u-	.	.
(>8qDD#X/ 8qD#X	.	.	.	.	.	.	.
8B\L)	8b/L	2d#X^^\ 2g 2dd#X	.	4dd#X\	-stan-	-tent	.
8A\J	8a/J	.	.	.	.	.	.
8G\L	8g/L	.	.	4dd#\	-ku	sans	.
8F#\J	8f#/J)	.	.	.	.	.	.
=66	=66	=66	=66	=66	=66	=66	=66
(>8qBBB/ 8qBB	.	.	.	.	.	.	.
8.dn\L)	(8.dd/L	4f#\ 4bn 4ff#	[	4ff#\	pły-	trê-	.
16c#\Jk	16cc#/Jk	.	.	.	.	.	.
(>8qDD#X/ 8qD#X	.	.	.	.	.	.	.
8B\L)	8b/L	2d#X^^\ 2g 2dd#X	<	8dd#X\	-ną	-ve	.
8A\J	8a/J	.	.	8dd#\	do	vers	.
8G\L	8g/L	.	.	8dd#\	two-	tes	.
8F#\J	8f#/J)	.	.	8dd#\	-ich	cieux	.
=67	=67	=67	=67	=67	=67	=67	=67
(8qBBB-X/ 8qBB-X	.	.	.	.	.	.	.
*^	*	*	*	*	*	*	*
(<8.B-X/L)	2.D\ 2.G	(<8.b-X/L	4g\ 4ddn 4gg	ff >	2gg\	zórz.	bleus.	.
16A/Jk	.	16a/Jk	.	.	.	.	.	.
8G/L	.	8g/L	2ryy	.	.	.	.	.
8Fn/J	.	8fn/J	.	.	.	.	.	.
8En/L	.	8en/L	.	.	4r	.	.	.
8D/J)	.	8d/J)	.	]	.	.	.	.
*v	*v	*	*	*	*	*	*	*
*	*clefF4	*	*	*	*	*	*
=68	=68	=68	=68	=68	=68	=68	=68
2AAA/ 2AA	(2d^^/	2E\ 2B	mf >	2.r	.	.	.
4ryy	4c#/	8F#X\L 8A	.	.	.	.	.
.	.	8E\J 8G	]]	.	.	.	.
=69	=69	=69	=69	=69	=69	=69	=69
*8ba	*	*	*	*	*	*	*
!LO:TX:a:t=sosten.:rj	!	!	!	!	!	!	!
2DDD/ 2DD	2F#/ 2d	8.D\L	p <	2.r	.	.	.
.	.	16C#\Jk	.	.	.	.	.
.	.	8BB\L	.	.	.	.	.
.	.	8AA\J	.	.	.	.	.
4EEE/ 4EE	4ryy	8GG\L	.	.	.	.	.
*X8ba	*	*	*	*	*	*	*
.	.	8FF#\J)	[	.	.	.	.
!!LO:LB:g=original
=70	=70	=70	=70	=70	=70	=70	=70
!	!	!	!LO:DY:t=f subito	!LO:TX:a:t=Più mosso, agitato	!	!	!
[2FFF#/ [2FF#	(12A/L	4D\ 4F#	f	4dd\	Nie-	Qu'el-	.
.	12B/	.	.	.	.	.	.
.	12c#/J	.	.	.	.	.	.
.	4..d/	4D\ 4F#	.	4..dd\	-chaj	-les	.
8.FFF#/L] 8.FF#]	.	8.ryy	.	.	.	.	.
16EEE#X/Jk 16EE#X	16c#/	16D\ 16G#X	.	16cc#\	roz-	dé-	.
=71	=71	=71	=71	=71	=71	=71	=71
2.DD/ 2.D	4A#X/	2.E#X\ 2.G#X	.	4a#X/	-szar-	-chi-	.
.	2B/)	.	.	2b\	-pią	-rent	.
=72	=72	=72	=72	=72	=72	=72	=72
*^	*	*	*	*	*	*	*
*	*	*	*	*^	*	*	*	*
!	!	!	!	!LO:DY:b:t=pp subito	!	!	!	!	!
(8.D/L	4DDD\ 4DD	4r	2ryy	pp	.	4r	.	.	.
16C#/Jk	.	.	.	.	.	.	.	.	.
8BB/L	2ryy	8r	.	.	.	4r	.	.	.
!	!	!LO:TX:t=P:problem:klamra łukowa	!	!	!	!	!	!	!
8AA/J	.	24A\LL	.	<	.	.	.	.	.
.	.	24B\	.	.	.	.	.	.	.
.	.	24c#\JJ	.	.	.	.	.	.	.
!	!	!	!	!	!LO:HP:a	!	!	!	!
8GG/L	.	(8.d^/L	4D\ 4A	.	<	8.r	.	.	.
8FF#/J)	.	.	.	.	.	.	.	.	.
.	.	16c#/Jk)	.	[	.	16cc#\	na	le	.
*	*	*	*	*v	*v	*	*	*	*
*v	*v	*	*	*	*	*	*	*
=73	=73	=73	=73	=73	=73	=73	=73
2.DD^>/ 2.D	(4A#X^/	2.E#X\ 2.G#X	f <	4cc#\	strzę-	voi-	.
.	4.B/)	.	.	4b\	-py,	-le	.
.	.	.	.	4r	.	.	.
.	(8B/	.	[[	.	.	.	.
*	*v	*v	*	*	*	*	*
=74	=74	=74	=74	=74	=74	=74
4r	4G#X\	ff	4f#/	na	sang-	.
(4..FFF#/ 4..FF#	4..D\) 4..A	.	4.ff#\	krwa-	-lant	.
.	.	.	8ff#\	-we	des	.
(16EEE#X/) 16EE#X	(16D^\ 16G# 16c#	.	.	.	.	.
=75	=75	=75	=75	=75	=75	=75
*	*^	*	*	*	*	*
([2GGG#X^>/) [2GG#X^<	4A#X^/	[4D\ [4E#X	>	2ff#\	szma-	au-	.
.	4..B/)	4..D\] 4..E#]	.	.	.	.	.
8.GGG#/L] 8.GG#]	.	.	.	4ee\	-ty,	-bes	.
16GGGn/Jk) 16GGn	16ryy	16En\ 16A#X 16d	]]	.	.	.	.
!!LO:LB:g=original
=76	=76	=76	=76	=76	=76	=76	=76
!	!LO:TX:b:t=calando	!	!	!	!	!	!
2.FFF#/ 2.FF#	(4B#X/	2.E\ 2.A#	<	2ee\	Łu-	rou-	.
.	4c#/	.	.	.	.	.	.
.	8d/L	.	.	8dd\	-ny	-ges	.
.	8e/J)	.	[	8cc#\	świ-	ten-	.
*	*v	*v	*	*	*	*	*
*	*clefG2	*	*	*	*	*
=77	=77	=77	=77	=77	=77	=77
2.FFFn~>/ 2.FFn	2.A~>/ 2.B 2.d 2.a	mp >	4b\	-to-	-du	.
.	.	.	4b\	-we	sur	.
.	.	.	4a/	po-	la	.
*	*clefF4	*	*	*	*	*
=78	=78	=78	=78	=78	=78	=78
*	*^	*	*	*	*	*
!	!	!	!	!LO:TX:a:t=Meno mosso	!	!	!
[2.EEE/ [2.EE	(2.Fn/ 2.A	(2C#\	.	4a/	-wsta-	ter-	.
.	.	.	.	4.a/	-łe	-re	.
.	.	4D\	.	.	.	.	.
!	!	!	!	!LO:TX:a:t=rall.	!	!	!
.	.	.	.	8a/	nad	où	.
=79	=79	=79	=79	=79	=79	=79	=79
2.EEE/] 2.EE]	2.G#X/)	2D#X\ 2F#X	.	2g#X/	zie-	rè-	.
.	.	4Dn\)	]	4g#/	-mią,	-gnent	.
*	*v	*v	*	*	*	*	*
=80	=80	=80	=80	=80	=80	=80
!	!LO:TX:b:t=meno mosso (Andante)	!	!	!	!	!
[2.EEE/ [2.EE	(2.D\ 2.F# 2.G#X	pp <	4r	.	.	.
.	.	.	4r	.	.	.
.	.	.	4g#X/	gdzie	la	.
=81	=81	=81	=81	=81	=81	=81
2.EEE/_ 2.EE_	2.C#\ 2.Fn 2.A	[[	2a^>/	ból	pei-	.
.	.	.	4a/	i	-ne	.
=82	=82	=82	=82	=82	=82	=82
2.EEE/_ 2.EE_	2.Cn^\) 2.G 2.B	>]	(2.b^\	roz-	et	.
!!LO:PB:g=original
=83	=83	=83	=83	=83	=83	=83
*	*^	*	*	*	*	*
2.EEE/] 2.EE]	(2.F#/ 2.A#X	(2C#\	>	2.a#X/)	-pacz	la	.
.	.	4Cn\	]]	.	.	.	.
=84	=84	=84	=84	=84	=84	=84	=84
[2.EEE/ [2.EE	2.G^/ 2.B	2.BB\)	.	(2.b\	drze-	dou-	.
=85	=85	=85	=85	=85	=85	=85	=85
2.EEE/] 2.EE]	2Cn/) 2A#X	2.F#\	.	2.a#X/)	-mią	-leur	.
.	(4BB/ 4B	.	.	.	.	.	.
=86	=86	=86	=86	=86	=86	=86	=86
!	!LO:TX:b:t=quasi timpani	!	!	!	!	!	!
!	!LO:TX:a:t=rallentando	!	!	!	!	!	!
(>4EEE'>/ 4EE	2.G/ 2.cn	2.BB-X\ 2.E	ppp <	2.r	.	.	.
4.EEE'>/ 4.EE	.	.	.	.	.	.	.
8EEE'>/) 8EE	.	.	.	.	.	.	.
=87	=87	=87	=87	=87	=87	=87	=87
!	!LO:TX:b:t=m.s.	!	!	!	!	!	!
2.r	2.A#X/ 2.c#X	2.GG\ 2.AA#X	.	2.r	.	.	.
=88	=88	=88	=88	=88	=88	=88	=88
4r	2.An/) 2.d#X	2.FFn\ 2.BB	[ >	4r	.	.	.
(>4.EEE'>/ 4.EE	.	.	.	4r	.	.	.
.	.	.	.	4a/	O	Ô	.
8EEE'>/) 8EE	.	.	]	.	.	.	.
*	*v	*v	*	*	*	*	*
=89||	=89||	=89||	=89||	=89||	=89||	=89||
*M6/4	*M6/4	*	*M6/4	*	*	*
*^	*^	*	*	*	*	*
!	!	!	!	!	!LO:TX:a:t=Adagio.	!	!	!
4EE/	2EEE\ 2EE	(2A/ 2cn 2e	(4E\	pp <	(4a/	Świę-	Dieu	.
4FFn/	.	.	4Fn\	.	4a/)	-ty	.	.
4FF#X/	2EE\	2A/ 2c 2d#X	4F#X\	.	4a/	nie-	tout-	.
4GG/	.	.	4G\	.	4a/	-śmier-	-puis-	.
4GG#X/	2EE\	2F#/) 2B 2dn	4G#X\	.	4g#X/	-tel-	-sant	.
4AA/	.	.	4A\)	[	4g#/	-ny	ô	.
!!LO:LB:g=original
=90	=90	=90	=90	=90	=90	=90	=90	=90
!	!	!LO:N:vis=2	!	!	!	!	!	!
(4GG/	2EE\	4A#X/	(>2E\ 2e	<	4gn/	Świę-	For-	.
!	!	!LO:TX:b:t=rall.	!	!	!	!	!	!
4GG#X/	.	4B/	.	.	4g/	-ty	-ce	.
4AA/	2EE\	2An/	2F#\ 2d#X	[ >	2f#X/	moc-	im-	.
4BB/	.	.	.	.	.	.	.	.
!	!	!	!	!	!LO:TX:a:t=rall.	!	!	!
2EE/) 2Cn	(4AAA\	2ryy	[2E\ 2A [2e	] pp	2e/	-ny	-mor	.
.	4GGGn\ 4GGn	.	.	.	.	.	.	.
*v	*v	*	*	*	*	*	*	*
=91	=91	=91	=91	=91	=91	=91	=91
1.FFF#) 1.FF#	1.E] 1.e]	2A\	.	(4e/	Bo-	tel-	.
.	.	.	.	4f#/)	.	.	.
.	.	1A#X)	.	1g	-że!	-le	.
=92	=92	=92	=92	=92	=92	=92	=92
(2CC#/	(4E/	2AAnj\	.	1.r;	.	.	.
.	4F#/	.	.	.	.	.	.
[2FFF#;/)	2ryy	[2AA#X;>\) [2G	.	.	.	.	.
4FFF#/]	4ryy	4AA#Z\] 4G]	.	.	.	.	.
*	*clefG2	*	*	*	*	*	*
4r	(16G/LL	4ryy	.	.	.	.	.
.	16g/)	.	.	.	.	.	.
.	(16g/	.	.	.	.	.	.
.	16gg/JJ)	.	.	.	.	.	.
*	*v	*v	*	*	*	*	*
=93||	=93||	=93||	=93||	=93||	=93||	=93||
*M3/4	*M3/4	*	*M3/4	*	*	*
!	!	!LO:DY:rj	!LO:TX:a:t=Allegro agitato.	!	!	!
8E\L 8G 8A#X 8d	(4g\ 4a#X 4dd 4gg	ff >	4gg\	Dla-	Pour-	.
*coll8ba	*	*	*	*	*	*
!LO:TX:b:t=col 8	!	!	!	!	!	!
8EEE\Jyy 8EE	.	.	.	.	.	.
*Xcoll8ba	*	*	*	*	*	*
8E\L 8G 8A# 8c#	4f#\ 4a# 4cc# 4ff#	.	8ff#\	-cze-	-quoi	.
*coll8ba	*	*	*	*	*	*
!LO:TX:b:t=col 8	!	!	!	!	!	!
8GGG^\Jyy 8GG	.	.	8ff#\	-go	mes	.
*Xcoll8ba	*	*	*	*	*	*
!	!	!	!LO:TX:t=P:problem:klamra łukowa	!	!	!
8E\L 8G 8A# 8c#	8f#X/L 8cc# 8ff#X	.	12dd#X\	mo-	lè-	.
.	.	.	12.ee\	-je	-vres	.
*coll8ba	*	*	*	*	*	*
!LO:TX:b:t=col 8	!	!	!	!	!	!
8AAA#X\Jyy 8AA#	8g/J 8gg	]]	.	.	.	.
*Xcoll8ba	*	*	*	*	*	*
.	.	.	24ee\	li	te	.
=94	=94	=94	=94	=94	=94	=94
*^	*	*	*	*	*	*
2E/ 2G	8r	2B/ 2e 2b	.	2b\	war-	di-	.
.	4CC#\ 4C#	.	.	.	.	.	.
.	8CCC#\ 8CC#	.	.	.	.	.	.
4C#/ 4E	8ryy	4A#X/) 4e 4a#X	.	4a#X/	-gi	-sent	.
.	8FFF#\ 8FF#	.	.	.	.	.	.
*v	*v	*	*	*	*	*	*
!!LO:LB:g=original
=95	=95	=95	=95	=95	=95	=95
*	*^	*	*	*	*	*
!	!	!	!	!LO:TX:t=P:problem:klamra łukowa	!	!	!
(2BBB/ 2BB	2d/	(>2.G\ 2.g	.	12g/	ma-	seu-	.
.	.	.	.	12b\	-ją	-les	.
.	.	.	.	12cc#\	wy-	mon	.
.	.	.	.	4.dd\	-rzu-	chant	.
8.AAA#X/) 8.AA#X	4c#/	.	.	.	.	.	.
.	.	.	.	8cc#\	-cać	de	.
(>16GGG/ 16GG	.	.	.	.	.	.	.
*	*v	*v	*	*	*	*	*
=96	=96	=96	=96	=96	=96	=96
!LO:TX:t=P:problem=mixed beam	!	!	!	!	!	!
8.E#X\L) 8.B 8.e#X	(8cc#\L 8ee#X 8ccc#	.	(<8a#X/	krwa-	dou-	.
.	8b\J 8bb	.	8b\)	-wą	.	.
16FFF#/Jk 16FF#	.	.	.	.	.	.
4.F#Z\ 4.c# 4.f#	4.a#XZ\)) 4.ff# 4.aa#X	.	4cc#\	pieśń?	-leur.	.
.	.	.	8rZ	.	.	.
(8CC#/ 8C#	(>8e/ 8b 8een	.	8ee\	płacz	Sei-	.
=97	=97	=97	=97	=97	=97	=97
*	*^	*	*	*	*	*
2FF#:/) 2E: 2A#X:	4d/ 4dd	2g\	.	(<4dd\	ze	-gneur!	.
.	4c#Z/) 4cc#	.	.	4cc#Z\)	mną!	.	.
*	*8va	*	*	*	*	*	*
4r	(16g/LL	4ryy	.	8r	.	.	.
.	16gg/	.	.	.	.	.	.
.	16gg/	.	.	8cc#\	Dla-	Pour-	.
.	16ggg/JJ	.	.	.	.	.	.
*	*v	*v	*	*	*	*	*
*clefG2	*	*	*	*	*	*
=98	=98	=98	=98	=98	=98	=98
8e^>/L 8g 8a#X 8dd	4gg\ 4aa#X 4ddd 4ggg	.	(<8.gg\	-cze-	-quoi	.
*clefF4	*	*	*	*	*	*
8EE/J 8E	.	.	.	.	.	.
.	.	.	16gg\)	-go	.	.
*clefG2	*	*	*	*	*	*
8e^>/L 8g 8a# 8cc#	4ff#\ 4aa# 4ccc# 4fff#	.	8.ff#\	sam	dois-	.
*clefF4	*	*	*	*	*	*
8GG/J 8G	.	.	.	.	.	.
.	.	.	16ff#\	mam	-je	.
*clefG2	*	*	*	*	*	*
8e^>/L 8g 8a# 8cc#	8dd#X/L 8aa# 8ddd#X	.	(<8dd#X\	iść	seul	.
*clefF4	*	*	*	*	*	*
8AA#X/J 8A#X	8ee/J) 8eee	.	8ee\)	w tę	.	.
*	*X8va	*	*	*	*	*
!!LO:LB:g=original
=99	=99	=99	=99	=99	=99	=99
*^	*	*	*	*	*	*
2B/ 2c# 2e 2g	8r	(2b\ 2cc# 2ee 2bb	>	(<8b\	prze-	sui-	.
.	4C#\ 4c#	.	.	8b\)	-strzeń	.	.
.	.	.	.	4b\	cie-	-vre	.
.	8CC#\ 8C#	.	.	.	.	.	.
4A#X/ 4e 4g	8r	4a#X\) 4cc# 4ee 4aa#X	]	4a#X/	-mną,	ma	.
.	8FF#\ 8F#	.	.	.	.	.	.
*v	*v	*	*	*	*	*	*
=100	=100	=100	=100	=100	=100	=100
*	*^	*	*	*	*	*
!LO:TX:t=P:problem=mixed beam	!	!	!	!	!	!	!
8.B\L 8.c# 8.e 8.g	4ee/	(>8b\L 8bb	<	4b\	Choć	rou-	.
.	.	8cc#\J 8ccc#	.	.	.	.	.
16FFF#/Jk 16FF#	.	.	.	.	.	.	.
4A#X\ 4e 4g	4gg/	4dd\ 4ddd	[ >	8.dd\	żar	-te	.
.	.	.	.	16dd\	po-	sous	.
8.B\L 8.c# 8.e 8.g	4ee/	8cc#\L 8ccc#	.	8.cc#\	-łud-	le	.
.	.	8b\J) 8bb	.	.	.	.	.
16GG\Jk 16G	.	.	]	16b\	-nia	cru-	.
=101	=101	=101	=101	=101	=101	=101	=101
(8.GG~>/L 8.G	4ee/	(>8b\L 8bb	<	8ee\	pa-	-el	.
.	.	8cc#\J 8ccc#	.	8ee\	-li	so-	.
16FF#/Jk) 16F#	.	.	.	.	.	.	.
4A#X\ 4e 4g	4gg/	4dd\ 4ddd	[ >	(<8.dd\	się	-leil	.
.	.	.	.	16dd\)	w przes-	.	.
8.B\L 8.c# 8.e 8.g	4ee/	8cc#\L 8ccc#	.	8cc#\	-two-	rou-	.
.	.	8b\J) 8bb	]	8b\	-rzu.	-ge	.
16GG\Jk 16G	.	.	.	.	.	.	.
*	*v	*v	*	*	*	*	*
=102	=102	=102	=102	=102	=102	=102
*	*8va	*	*	*	*	*
(8.GG~/L 8.G	(>8cc#/L 8aa#X 8ccc#	ff <	4gg\	Dla-	et	.
.	8dd/J 8bb 8ddd	.	.	.	.	.
16FF#/Jk) 16F#	.	.	.	.	.	.
*clefG2	*	*	*	*	*	*
4A#X/ 4e 4g 4cc#	4ee/ 4gg 4eee	.	8ff#\	-cze-	me	.
.	.	.	8ff#\	-go	traî-	.
8.B/L 8.e 8.g 8.b	8dd/L 8gg 8ddd	.	(<8dd#X\	sam	-ner	.
.	8cc#/J) 8ccc#	.	8ee\)	mam	.	.
*clefF4	*	*	*	*	*	*
16GG/Jk 16G	.	.	.	.	.	.
!!LO:PB:g=original
=103	=103	=103	=103	=103	=103	=103
(8.GG~>/L 8.G	(8cc#/L 8aa#X 8ccc#	.	(<8cc#\	wlec	seul	.
.	8dd/J 8bb 8ddd	.	8b\)	się	sans	.
16FF#/Jk) 16F#	.	.	.	.	.	.
*clefG2	*	*	*	*	*	*
4A#X/ 4e 4g 4cc#	4ee/ 4gg 4eee	.	8a#X/	po	joie	.
.	.	.	8a#/	roz-	et	.
8.B/L 8.e 8.g 8.b	8dd/L 8gg 8ddd	.	8b\	-dro-	sans	.
.	8cc#/J) 8ccc#	[	8cc#\	-żu	re-	.
*clefF4	*	*	*	*	*	*
16AAA/Jk 16AA	.	.	.	.	.	.
=104	=104	=104	=104	=104	=104	=104
(8.AAAnj^>/L 8.AAnj	(8cc#/L 8aa#X 8ccc#	<	4ee\	ku	-pos	.
.	8dd/J 8bb 8ddd	.	.	.	.	.
16GGG/Jk) 16GG	.	.	.	.	.	.
!	!LO:TX:b:t=rallent.	!	!LO:TX:a:t=rallent.	!	!	!
4G^<\ 4B 4e 4g	4ee/ 4gg 4bb 4eee	.	8ee\	tym	vers	.
.	.	.	8ee\	po-	tes	.
4F#^<\ 4B 4d 4a	8ff#\L 8bb 8fff#	.	8ff#\	-chy-	croix	.
.	8aa#\J 8aaa	.	8b\	-łym	lu-	.
=105	=105	=105	=105	=105	=105	=105
*^	*	*	*	*	*	*
!	!	!	!	!	!	!	!LO:DY:a:rj
2.E/ 2.B-X 2.d 2.g	4r	2gg;\) 2bb-X 2ddd 2ggg	[	2gg;\	krzy-	-gu-	fff
.	2EEE;>\ 2EE	.	.	.	.	.	.
*	*	*X8va	*	*	*	*	*
!	!	!	!LO:DY:rj	!	!	!	!
.	.	4ryy	fff >]	4g/	-żom?	-bres.	.
*	*	*clefF4	*	*	*	*	*
=106;<	=106	=106	=106	=106;	=106	=106	=106
*	*	*^	*	*^	*	*	*
!	!	!	!	!LO:DY:t=pp subito	!LO:TX:a:t=Meno mosso.	!	!	!	!
(2BB~/	2.GGG\ 2.DD	2G/ 2B	(>8BB\L 8B	pp	4b/	8b\	Któ-	Où	.
!	!	!	!	!	!	!LO:N:cue	!	!	!
.	.	.	8Cn\J 8cn	.	.	8b\	.	le	.
.	.	.	4C#X\ 4c#X	<	8b\	4ryy	-rym	noir	.
.	.	.	.	.	8b\	.	na	cor-	.
4BB-X/)	.	4G/ 4B-	4D\) 4d	[	8b-X/	4b-\	czar-	-beau	.
.	.	.	.	.	8b-/	.	-ne	.	.
*	*	*	*	*	*v	*v	*	*	*
=107	=107	=107	=107	=107	=107	=107	=107	=107
(2BBn~/	2.GGG\ 2.DD	2G/ 2B	(>8BB\L 8Bn	<	4bn\	ra-	jet-	.
.	.	.	8Cn\J 8cn	.	.	.	.	.
.	.	.	4C#X\ 4c#X	.	4b\	-mio-	-te	.
4BB-X/)	.	4G/ 4B-	4D\) 4d	.	8b-X\	-na	vers	.
.	.	.	.	.	8b-\	kra-	les	.
*v	*v	*	*	*	*	*	*	*
!!LO:LB:g=original
=108	=108	=108	=108	=108	=108	=108	=108
(2GGG/ 2DD 2BBn	2G/	(>8D\L 8d	.	4.bnX\	-czą-	cieux	.
.	.	8D#X\J 8d#X	.	.	.	.	.
.	.	4E\ 4e	.	.	.	.	.
.	.	.	.	8b\	-ca	sa	.
4FFF#/) 4BBB 4DD 4AA	4B/	8F#\L 8f#	.	8a/	sia-	mor-	.
.	.	8A\J 8a	[	8a/	-dła	-ne	.
=109	=109	=109	=109	=109	=109	=109	=109
4EEE/ 4BBB 4DD 4GG	4G\) 4B 4d 4g	4ryy	<	8g/	wro-	plain-	.
.	.	.	.	8g/	-na?	-te.	.
*	*clefG2	*	*	*	*	*	*
4r	((4.dd^^/	4r	[	4r	.	.	.
.	.	(>16qqf#\LL	mf >	.	.	.	.
.	.	16qqg\	.	.	.	.	.
.	.	16qqa\JJ	.	.	.	.	.
4A#X~\ 4e	.	4g\)	.	8r	.	.	.
.	8cc#/)	.	.	8g/	I	.	.
(16qqA#X\LL	.	.	.	.	.	.	.
16qqB\	.	.	.	.	.	.	.
16qqc#\JJ	.	.	.	.	.	.	.
=110	=110	=110	=110	=110	=110	=110	=110
*^	*	*	*	*^	*	*	*
4e/)	(8.B\L	4b/	8.g\L	.	8g/	2ryy	dzio-	Son	.
.	.	.	.	.	8g/	.	-bem	.	.
.	16A\Jk	.	16f#\Jk	.	.	.	.	.	.
4B/	8G\L	4g/	8e\L	.	4g/	.	zma-	bec	.
.	8F#\J	.	8d\J	.	.	.	.	.	.
4B/	8F#\L	4g/)	8d\L	.	4g/	8g\	-rłe	frappe	.
!	!	!	!	!	!	!LO:N:cue	!	!	!
.	8E\J)	.	8c#\J	]	.	8g\	.	.	.
*v	*v	*	*	*	*v	*v	*	*	*
*	*clefF4	*	*	*	*	*	*
=111	=111	=111	=111	=111	=111	=111	=111
4r	((4.d/	4r	.	2.r	.	.	.
4r	.	4r	.	.	.	.	.
.	8c#/)	.	.	.	.	.	.
.	.	(>16qqF#\LL	mp >	.	.	.	.
.	.	16qqG\	.	.	.	.	.
.	.	16qqA\JJ	.	.	.	.	.
4AA#X~>/ 4E	4B/	4G\)	.	.	.	.	.
(16qqAA#X\LL	.	.	.	.	.	.	.
16qqBB\	.	.	.	.	.	.	.
16qqC#\JJ)	.	.	.	.	.	.	.
=112	=112	=112	=112	=112	=112	=112	=112
*^	*	*	*	*	*	*	*
4E/	(8.BB\L	4B/	8.G\L	.	8e/	roz-	les	.
.	.	.	.	.	8e/	-sy-	di-	.
.	16AA\Jk	.	16F#\Jk	.	.	.	.	.
4BB/	8GG\L	4G/	8E\L	.	4.g/	-pu-	-vins	.
.	8FF#\J	.	8D\J	.	.	.	.	.
4BB/	8FF#\L	4G/)	8D\L	.	.	.	.	.
.	8EE\J)	.	8C#\J	]	8a/	-je	em	.
*v	*v	*	*	*	*	*	*	*
!!LO:LB:g=original
=113	=113	=113	=113	=113	=113	=113	=113
4r	4r	2.C#\	pp	2.g/	pró-	blê-	.
!	!LO:TX:b:t=rallent.	!	!	!	!	!	!
2FFF#/ 2CC# 2FF#	2BB/ 2G	.	>	.	.	.	.
=114	=114	=114	=114	=114	=114	=114	=114
4r	4r	2.C#\	.	2f#/	-chno?	-mes!	.
2FFF#;/ 2CC# 2FF#	2AA#X;/ 2F#	.	.	.	.	.	.
.	.	.	]]	4r	.	.	.
*	*v	*v	*	*	*	*	*
=115	=115	=115	=115	=115	=115	=115
!	!	!	!LO:TX:a:t=Lento assai. (Tempo I.)	!	!	!
(>8GGG#X/L 8GG#X	8D\L 8Fn 8B	pp	8b\	Świę-	Ô	.
8GGGn/J 8GGn	8C#\J 8E 8B	<	8b\	-ty	Sei-	.
4FFF#/ 4FF#	4BB#X\ 4D#X 4A#X	.	(<4a#X/	Bo-	-gneur	.
4EEE#X/) 4EE#X	4BBn\ 4Dn 4B	.	4b\)	-że	.	.
=116	=116	=116	=116	=116	=116	=116
*8ba	*	*	*	*	*	*
(>8EEEn/L 8EEn	(8Cn\L 8G 8B	.	8b\	Świę-	Saint	.
8EEE-X/J 8EE-X	8C#X\J 8G 8B	.	8b\	-ty	des	.
4DDD/ 4DD	4D\ 4G 4B-X	.	(<4a#X/	moc-	Saints	.
[4CCC#/ [4CC#	4D#X\ [4G [4Bn	.	4b\)	-ny	.	.
=117	=117	=117	=117	=117	=117	=117
*	*^	*	*	*	*	*
*	*	*^	*	*	*	*	*
2CCC#/] 2CC#]	8B/L]	2E\ 2G]	4ryy	.	8b\	Świę-	Ô	.
.	8c#/J	.	.	.	8cc#\	-ty	Puis-	.
!	!	!	!	!	!	!	!	!LO:HP:a
.	4d/	.	4E#X\ 4G#X	[ >	4dd\	a	-san-	>
4DDD/) 4DD	8c#/L	4ryy	4E#\ 4G#	.	8cc#\	nie-	-ce	.
.	8B/J)	.	.	]	8b\	-śmier-	étér-	.
*	*	*v	*v	*	*	*	*	*
=118	=118	=118	=118	=118	=118	=118	=118
!	!LO:TX:b:t=ten.	!	!	!	!	!	!
!LO:TX:a:t=ten.	!LO:TX:b:t=rallent.	!	!	!	!	!	!
2.EEE#X~>/ 2.EE#X	(4A#X~/	2.D\ 2.G#X	.	4a#X/	-tel-	-nel-	.
*X8ba	*	*	*	*	*	*	*
.	2B/)	.	.	2b\	-ny	-le.	]
!!LO:LB:g=original
=119	=119	=119	=119	=119	=119	=119	=119
*^	*	*	*	*	*	*	*
!	!	!LO:TX:a:t=A tempo	!	!	!	!	!	!
(2BB~/	2.GGG\ 2.DD	[<2G/ 2B	(>8BB\L 8Gn 8B	p <	2.ryy	.	.	.
.	.	.	8Cn\J 8cn	.	.	.	.	.
.	.	.	4C#X\ 4c#X	.	.	.	.	.
4BB-X/)	.	4G/] 4B-	4D\) 4d	[	.	.	.	.
=120	=120	=120	=120	=120	=120	=120	=120	=120
(2BB~/	2.GGG\ 2.DD	[<2G/ 2B	(>8BBn\L 8Bn	<	2.ryy	.	.	.
.	.	.	8Cn\J 8cn	.	.	.	.	.
.	.	.	4C#X\ 4c#X	.	.	.	.	.
4BB-X/)	.	4G/] 4B-	4D\ 4d	.	.	.	.	.
=121	=121	=121	=121	=121	=121	=121	=121	=121
(<2DD/	2.GGG\ [>2.BBn	2G/ 2B	8BBn\L 8Bn	.	2.ryy	.	.	.
.	.	.	8C#\J 8c#	[	.	.	.	.
.	.	.	4D\ 4d	f	.	.	.	.
4CC#/)	.	4ryy	[4E\ [4B [4e	.	.	.	.	.
*	*	*v	*v	*	*	*	*	*
=122	=122	=122	=122	=122	=122	=122	=122
!	!	!	!LO:DY:t=pp subito	!	!	!	!
([2.CC#/ 2.BB]	4r	2.E\] 2.B] 2.e]	pp	2.ryy	.	.	.
.	4.GGG\	.	.	.	.	.	.
.	8GGG\	.	.	.	.	.	.
*v	*v	*	*	*	*	*	*
=123	=123	=123	=123	=123	=123	=123
!	!LO:TX:b:t=rall.	!	!	!	!	!
[<2.FFF#/) 2.CC#_> [2.AA#X	2.D\) [2.A [2.d	>	2.ryy	.	.	.
=124	=124	=124	=124	=124	=124	=124
*^	*	*	*	*	*	*
!	!	!LO:TX:b:t=morendo	!	!	!	!	!
2.CC#/] 2.AA#]	4FFF#\]	2.D\ 2.A] 2.d]	.	2.ryy	.	.	.
.	4.FFF#\	.	.	.	.	.	.
.	8FFF#\	.	]	.	.	.	.
*v	*v	*	*	*	*	*	*
*	*clefG2	*	*	*	*	*
=125	=125	=125	=125	=125	=125	=125
!	!LO:TX:b:t=ten.	!LO:DY:rj	!	!	!	!
2.F#;\ 2.A#X	2.c#;/ 2.f# 2.cc#	ppp	2.ryy	.	.	.
==	==	==	==	==	==	==
*-	*-	*-	*-	*-	*-	*-
!!!system-decoration: s1{(s2,s3)}
!!!RDF**kern: Z = caesura
!!!RDF**kern: < = below
!!!RDF**kern: > = above
!!!RDF**kern: j = editorial accidental, paren
!!!ENC: Andrzej Gręziak
!!!END: 2023-09-25
!!!EED: Marta Chmielewska
!!!EEV: 2023-10-12
